Papirus/48x48/places/user-trash-full.svg

<svg xmlns="http://www.w3.org/2000/svg" width="48" height="48" version="1">
 <path style="opacity:0.2" d="m 11,10 h 26 c 1.108,0 2,0.918314 2,2.059 0,0 3,8.941 3,15.941 0,7 -2,17 -5,17 H 11 C 8,45 6,35 6,28 6,21 9,12.059 9,12.059 9.2109668,10.937993 9.892,10 11,10 Z"/>
 <rect style="fill:#9f9f9f" width="12" height="4" x="18" y="4"/>
 <path style="fill:#8e8e8e" d="m 11,9 h 26 c 1.108,0 2,0.918314 2,2.059 0,0 3,8.941 3,15.941 0,7 -2,17 -5,17 H 11 C 8,44 6,34 6,27 6,20 9,11.059 9,11.059 9.2109668,9.9379926 9.892,9 11,9 Z"/>
 <path style="opacity:0.3;fill:none;stroke:#000000;stroke-width:4;stroke-linecap:round" d="m 16.0002,21 c 0,0 -1.0002,4 -1.0002,8 0,4 1.0002,8 1.0002,8"/>
 <rect style="fill:#9f9f9f" width="36" height="8" x="6" y="6" rx="2" ry="2"/>
 <path style="fill:none;stroke:#000000;stroke-width:4;stroke-linecap:round;opacity:0.3" d="M 24,21 V 37"/>
 <path style="opacity:0.2;fill:#ffffff" d="M 8,6 C 6.892,6 6,6.892 6,8 V 9 C 6,7.892 6.892,7 8,7 h 32 c 1.108,0 2,0.892 2,2 V 8 C 42,6.892 41.108,6 40,6 Z"/>
 <path style="opacity:0.2" d="m 6,12 v 1 c 0,1.108 0.892,2 2,2 h 32 c 1.108,0 2,-0.892 2,-2 v -1 c 0,1.108 -0.892,2 -2,2 H 8 C 6.892,14 6,13.108 6,12 Z"/>
 <path style="opacity:0.3;fill:none;stroke:#000000;stroke-width:4;stroke-linecap:round" d="m 32.0002,21 c 0,0 0.9998,4 0.9998,8 0,4 -0.9998,8 -0.9998,8"/>
</svg>

<svg xmlns="http://www.w3.org/2000/svg" width="48" height="48" version="1">
 <path style="opacity:0.2" d="M 11,10 H 37 C 39,10 42,21 42,27.5 42,34 40,45 37,45 H 11 C 8,45 6,34 6,27.5 6,21 9,10 11,10 Z"/>
 <path style="fill:#8e8e8e" d="M 11,9 H 37 C 39,9 42,20 42,26.5 42,33 40,44 37,44 H 11 C 8,44 6,33 6,26.5 6,20 9,9 11,9 Z"/>
 <rect style="fill:#9f9f9f" width="12" height="4" x="18" y="4"/>
 <rect style="opacity:0.2" width="36" height="8" x="6" y="7" rx="2" ry="2"/>
 <rect style="fill:#9f9f9f" width="36" height="8" x="6" y="6" rx="2" ry="2"/>
 <path style="opacity:0.3;fill:none;stroke:#000000;stroke-width:4;stroke-linecap:round" d="M 32,21 C 32,21 33,25 33,29 33,33 32,37 32,37 M 24,21 V 37 M 16,21 C 16,21 15,25 15,29 15,33 16,37 16,37"/>
 <path style="fill:#ffffff;opacity:0.2" d="M 8 6 C 6.892 6 6 6.892 6 8 L 6 9 C 6 7.892 6.892 7 8 7 L 40 7 C 41.108 7 42 7.892 42 9 L 42 8 C 42 6.892 41.108 6 40 6 L 8 6 z"/>
</svg>
